tools/download-figma-icons/icons/solid/diamond.svg

<svg width="24" height="24" viewBox="0 0 24 24" fill="none" xmlns="http://www.w3.org/2000/svg">
<path d="M6 11.25H1.5L4.5975 6.37501C4.66358 6.26055 4.75873 6.16559 4.87331 6.09974C4.98789 6.03389 5.11784 5.99948 5.25 6.00001H9L6 11.25Z" fill="black"/>
<path d="M6 12.75L9.75 21.7425L1.5 12.75H6Z" fill="black"/>
<path d="M7.5 11.2425L10.5 6H13.5L16.5 11.2425H7.5Z" fill="black"/>
<path d="M16.5 12.75L12.0225 24H11.9775L7.5 12.75H16.5Z" fill="black"/>
<path d="M18 12.75H22.5L14.25 21.7425L18 12.75Z" fill="black"/>
<path d="M18 11.25L15 6.00001H18.75C18.8822 5.99948 19.0121 6.03389 19.1267 6.09974C19.2413 6.16559 19.3364 6.26055 19.4025 6.37501L22.5 11.25H18Z" fill="black"/>
<path d="M12 4.5C11.8011 4.5 11.6103 4.42098 11.4697 4.28033C11.329 4.13968 11.25 3.94891 11.25 3.75V0.75C11.25 0.551088 11.329 0.360322 11.4697 0.21967C11.6103 0.0790176 11.8011 0 12 0C12.1989 0 12.3897 0.0790176 12.5303 0.21967C12.671 0.360322 12.75 0.551088 12.75 0.75V3.75C12.75 3.94891 12.671 4.13968 12.5303 4.28033C12.3897 4.42098 12.1989 4.5 12 4.5Z" fill="black"/>
<path d="M15 4.49994C14.8529 4.49879 14.7095 4.45446 14.5875 4.37244C14.505 4.31795 14.4341 4.24771 14.3789 4.16575C14.3237 4.08379 14.2853 3.99172 14.2657 3.89485C14.2462 3.79797 14.2461 3.69819 14.2652 3.60125C14.2844 3.5043 14.3225 3.4121 14.3775 3.32994L15.8775 1.07994C15.9927 0.92673 16.1622 0.823464 16.3512 0.791357C16.5402 0.75925 16.7344 0.80074 16.8937 0.907305C17.0531 1.01387 17.1656 1.17742 17.2081 1.36435C17.2507 1.55128 17.22 1.74741 17.1225 1.91244L15.6225 4.16244C15.5545 4.26561 15.4621 4.3504 15.3535 4.40928C15.2449 4.46816 15.1235 4.4993 15 4.49994Z" fill="black"/>
<path d="M9.00008 4.49994C8.87655 4.4993 8.75509 4.46816 8.64649 4.40928C8.53789 4.3504 8.44552 4.26561 8.37758 4.16244L6.87758 1.91244C6.78001 1.74741 6.74935 1.55128 6.79189 1.36435C6.83443 1.17742 6.94694 1.01387 7.1063 0.907305C7.26567 0.80074 7.45979 0.75925 7.6488 0.791357C7.8378 0.823464 8.00734 0.92673 8.12258 1.07994L9.62258 3.32994C9.6775 3.4121 9.71564 3.5043 9.73481 3.60125C9.75398 3.69819 9.7538 3.79797 9.73429 3.89485C9.71477 3.99172 9.67631 4.08379 9.6211 4.16575C9.56589 4.24771 9.49502 4.31795 9.41258 4.37244C9.29055 4.45446 9.1471 4.49879 9.00008 4.49994Z" fill="black"/>
</svg>

<svg width="24" height="24" viewBox="0 0 24 24" fill="none" xmlns="http://www.w3.org/2000/svg"><path d="M6 11.25H1.5l3.098-4.875A.75.75 0 0 1 5.25 6H9l-3 5.25Zm0 1.5 3.75 8.992L1.5 12.75H6Zm1.5-1.508L10.5 6h3l3 5.242h-9Zm9 1.508L12.023 24h-.046L7.5 12.75h9Zm1.5 0h4.5l-8.25 8.992L18 12.75Zm0-1.5L15 6h3.75a.75.75 0 0 1 .652.375L22.5 11.25H18ZM12 4.5a.75.75 0 0 1-.75-.75v-3a.75.75 0 1 1 1.5 0v3a.75.75 0 0 1-.75.75Zm3 0a.75.75 0 0 1-.621-.334.752.752 0 0 1-.002-.836l1.5-2.25a.75.75 0 0 1 1.245.832l-1.5 2.25A.75.75 0 0 1 15 4.5Zm-6 0a.75.75 0 0 1-.622-.338l-1.5-2.25a.75.75 0 0 1 1.245-.832l1.5 2.25a.75.75 0 0 1-.21 1.042A.75.75 0 0 1 9 4.5Z" fill="currentColor"/></svg>
